X:1
T:Title
%%score ( 1 2 ) ( 3 4 )
L:1/8
Q:1/4=110
M:4/4
K:C
V:1 treble nm="Grand Piano, Soprano"
V:2 treble 
V:3 bass nm="Choir Pad, Rabat, Philip P. Bliss"
V:4 bass 
V:1
 [EG]2 [Ec]2 [Ec]2 [Ec]2 | [CE][DF] [EG]2- [EG][DF] [CE]2 | [EG]2 [FA]2 [FA]2 A^G | Ac [FB]6 | %4
w: By~Philip~Paul~Bliss~(1838\-1876) * * *||||
 AB [Ec]2 [Ec]2 [Ec]2 | [CE][DF] [EG]2- [EG][DF] [CE]2 | [EG]2 [FA]2 [FA]2 BA | Bd [Ec]4- [Ec]G | %8
w: ||||
 GG [Ge]2 [Ec]2 [Fc]2- | [Fc][FA] [EG]6 | [Ec]2 [DB]2- [DB][Ec][DB][CA] | [EG][DF] [CE]4- [CE]G | %12
w: ||||
 GG [Ge]2 [Ec]2 [Fc]2- | [Fc][FA] [EG]6 | [Ec]2 [Fd]2- [Fd][Fc] [FB]2 | AB [Ec]6- | [Ec]2 z2 z4 |] %17
w: |||||
V:2
 x8 | x8 | z4 z2 F2 | F2 z2 z4 | F2 z2 z4 | x8 | z4 z2 F2 | F2 z2 z4 | x8 | x8 | x8 | x8 | x8 | %13
 x8 | x8 | F2 z2 z4 | x8 |] %17
V:3
 [C,C]2 [C,G,]2 [C,G,]2 [C,G,]2 | [C,G,]2 [C,G,]2- [C,G,][C,G,] [C,G,]2 | %2
 [C,C]2 [F,C]2 [F,C]2 CB, | CA, G,6 | G,2 [C,G,]2 [C,G,]2 [C,G,]2 | %5
 [C,G,]2 [C,G,]2- [C,G,][C,G,] [C,G,]2 | [C,C]2 [F,C]2 [F,C]2 G,2 | DB, [C,C]4- [C,C]G, | %8
 G,G, [C,C]2 [C,G,]2 [F,A,]2- | [F,A,][F,C] [C,C]6 | [C,C]2 G,2- G,/ z/ G, G,2 | %11
 [G,,G,]2 [C,G,]4- [C,G,]G, | G,G, [C,C]2 [C,G,]2 [F,A,]2- | [F,A,][F,C] [C,C]6 | %14
 [C,G,]2 [F,A,]2- [F,A,][F,A,] G,2 | G,2 [C,G,]6- | [C,G,]2 z2 z4 |] %17
V:4
 x8 | x8 | z4 z2 F,2 | F,2 z2 z4 | x8 | x8 | x8 | G,2 z2 z4 | x8 | x8 | x8 | x8 | x8 | x8 | x8 | %15
 x8 | x8 |] %17

